packages/elvis-assets-icons/icons/svg/src/car_charger-color.svg

<svg width="24" height="24" viewBox="0 0 24 24" fill="none" xmlns="http://www.w3.org/2000/svg">
<path fill-rule="evenodd" clip-rule="evenodd" d="M22.6821 0.310268L11.0107 0L8.14789 0.281583C7.57119 0.338307 7.1304 0.819871 7.12627 1.39771L7.09295 6.06391C7.58561 5.93976 8.02277 5.83907 8.35383 5.766L8.38416 1.51957L10.4039 1.32091V16.3437C9.96387 16.5639 9.33284 16.8833 8.76037 17.1739L8.27058 17.4227L8.32777 9.41562C7.97586 9.59917 7.52346 9.80777 7.06475 10.013L7 19.0789H21.4011C21.6995 19.0789 21.9816 18.9617 22.1917 18.7567L24 16.9924L23.7847 1.42391C23.7763 0.817864 23.2897 0.326421 22.6821 0.310268ZM11.6626 16.1045V1.27291L22.5277 1.56175L22.7289 16.1045L11.6626 16.1045ZM11.1808 17.3596L21.8238 17.3596L21.3481 17.8238H10.2567C10.6196 17.6404 10.9498 17.4743 11.1808 17.3596Z" fill="black"/>
<path fill-rule="evenodd" clip-rule="evenodd" d="M8.68395 8.02678V6.27706C7.68749 6.50326 6.35975 6.83317 5.11592 7.2322C4.25491 7.50841 3.47697 7.80434 2.88953 8.10353C2.596 8.25303 2.38112 8.38779 2.23693 8.50093C2.14484 8.5732 2.10597 8.61765 2.09543 8.63C1.97627 8.88262 1.84911 9.31122 1.73625 9.91447C1.62385 10.5153 1.53941 11.2113 1.47713 11.9325C1.38559 12.9925 1.34524 14.066 1.32759 14.9033H2.1424L3.3524 11.37C3.3913 11.2564 3.53357 10.8466 3.9595 10.5628C4.1912 10.4084 4.68973 10.1515 5.17485 9.90297C5.31839 9.82943 5.46905 9.75254 5.62464 9.67314L5.62467 9.67312C6.04844 9.45686 6.50881 9.22192 6.96177 8.985C7.58416 8.65947 8.15886 8.3476 8.57032 8.09707C8.61116 8.07221 8.649 8.04878 8.68395 8.02678ZM10 8.61399V5.29013C10 4.96102 9.70444 4.71356 9.38166 4.7807C7.45973 5.18052 1.6738 6.49963 0.923625 8.03114C0.120813 9.6701 0.0138229 13.9406 1.65174e-05 15.6939C-0.00226849 15.9841 0.232818 16.217 0.523552 16.217H1.15054C0.971659 17.3831 0.912791 19.1462 1.33691 20.6943C1.76418 22.2538 2.75318 23.7895 4.7996 23.9965C5.15659 24.0326 5.47667 23.7858 5.51452 23.4452C5.55237 23.1047 5.29366 22.7993 4.93668 22.7632C3.6863 22.6368 2.96542 21.7339 2.59466 20.3807C2.2252 19.0321 2.27444 17.4291 2.44181 16.3645C2.44966 16.3146 2.45104 16.2652 2.44654 16.217H2.70766C2.93277 16.217 3.13228 16.0741 3.20509 15.8615L4.59771 11.7949C4.61644 11.7402 4.642 11.6875 4.69018 11.6554C4.88219 11.5274 5.48458 11.22 6.21833 10.8456L6.21833 10.8456C7.80286 10.0369 10 8.91566 10 8.61399Z" fill="black"/>
<path fill-rule="evenodd" clip-rule="evenodd" d="M17.5393 7.45165L18.2847 2.19995L14 10.0391H16.4606L15.7152 15.2908L19.9999 7.45165L17.5393 7.45165Z" fill="#29D305"/>
</svg>

<svg width="24" height="24" fill="none" xmlns="http://www.w3.org/2000/svg"><g clip-path="url(#clip0)" fill-rule="evenodd" clip-rule="evenodd"><path d="M11.01 0l11.672.31a1.131 1.131 0 011.103 1.114L24 16.992l-2.031 2.186a1.13 1.13 0 01-.79.322H8.006a1 1 0 01-1-1.007l.06-8.48c.458-.206.91-.415 1.262-.598l-.058 8.429 2.133-1.5V1.32l-2.02.199-.03 4.246c-.33.073-.768.174-1.26.298l.032-4.666A1.13 1.13 0 018.148.282L11.01 0zm.653 1.273v14.832h11.066l-.201-14.543-10.865-.29zM22.25 17.36H11.18l-1.18.885h11.277l.973-.885z" fill="#000"/><path d="M8.684 8.027v-1.75c-.997.226-2.324.556-3.568.955-.861.277-1.639.572-2.226.872-.294.15-.509.284-.653.397a.97.97 0 00-.142.13c-.119.252-.246.68-.359 1.284-.112.6-.197 1.296-.259 2.018a46.971 46.971 0 00-.15 2.97h.815l1.21-3.533c.04-.113.182-.523.607-.807.232-.155.73-.411 1.216-.66l.45-.23c.423-.216.884-.451 1.337-.688a30.782 30.782 0 001.722-.958zM10 8.614V5.29a.514.514 0 00-.618-.51C7.46 5.18 1.674 6.5.924 8.032.12 9.671.014 13.941 0 15.694a.52.52 0 00.524.523h.627c-.18 1.166-.238 2.93.186 4.477.427 1.56 1.416 3.096 3.463 3.303.357.036.677-.211.715-.552a.628.628 0 00-.578-.682c-1.25-.126-1.972-1.029-2.342-2.382-.37-1.349-.32-2.952-.153-4.016.008-.05.009-.1.005-.148h.26a.525.525 0 00.498-.355l1.393-4.067a.259.259 0 01.092-.14c.192-.127.795-.435 1.528-.81C7.803 10.038 10 8.916 10 8.616z" fill="#000"/><path d="M17.54 7.452l.745-5.252L14 10.04h2.46l-.745 5.25L20 7.453h-2.46z" fill="#29D305"/></g><defs><clipPath id="clip0"><path fill="#fff" d="M0 0h24v24H0z"/></clipPath></defs></svg>
